casedrop/img/balance/images/iomoney.svg

<svg width="113" height="25" viewBox="0 0 113 25" fill="none" xmlns="http://www.w3.org/2000/svg">
<path d="M99.2759 12.5719C99.2759 9.50547 96.9453 7.025 93.6534 7.025C90.4266 7.025 88.1289 9.41016 88.1289 12.6875C88.1289 15.9813 90.4917 18.3828 93.8817 18.3828C96.0326 18.3828 97.8414 17.425 98.9659 15.4781L96.6847 14.4234C96.1472 15.3969 94.9733 16.0297 93.8817 16.0297C92.4967 16.0297 90.8998 14.9914 90.8017 13.5477H99.1943C99.2478 13.2251 99.2751 12.8988 99.2759 12.5719ZM90.8503 11.6344C91.0465 10.1742 92.0564 9.21719 93.6698 9.21719C95.2667 9.21719 96.2445 10.1547 96.3748 11.6344H90.8503Z" fill="white"/>
<path d="M67.8617 7.02266C64.5534 7.02266 62.207 9.39219 62.207 12.7344C62.207 16.0437 64.5534 18.3805 67.8947 18.3805C71.2517 18.3805 73.5981 16.0437 73.5981 12.7828C73.5981 9.42422 71.1866 7.02266 67.8617 7.02266ZM67.8947 15.8977C66.2319 15.8977 65.2055 14.6648 65.2055 12.75C65.2055 10.8031 66.2484 9.47266 67.8947 9.47266C69.5567 9.47266 70.5996 10.7867 70.5996 12.75C70.5996 14.6812 69.5732 15.8977 67.8947 15.8977Z" fill="white"/>
<path d="M56.0809 7.02578C54.7257 7.02578 53.7048 7.48672 52.6839 8.62969H52.3488C51.663 7.59766 50.5439 7.02578 49.2884 7.02578C48.6615 7.01968 48.0421 7.16191 47.4813 7.44076C46.9204 7.71961 46.4341 8.1271 46.0624 8.62969H45.7273L45.7108 8.61406V7.24844H42.9062V18.1422H45.9368V12.5359C45.9368 10.7258 46.7027 9.66172 48.0266 9.66172C49.2547 9.66172 50.0519 10.5672 50.0519 11.9484V18.1422H53.0982V12.5359C53.0982 10.7391 53.8641 9.66172 55.2044 9.66172C56.416 9.66172 57.1976 10.5672 57.1976 11.9648V18.1422H60.2447V11.5992C60.2447 8.75703 58.7129 7.02578 56.0809 7.02578Z" fill="white"/>
<path d="M106.017 14.3641H105.8C105.8 14.1703 104.479 10.7203 103.612 8.58281L103.071 7.24609H100.018L104.349 18.1781L102.642 22.3438H105.675L111.912 7.25H108.857L108.359 8.39297L106.67 12.5547C106.193 13.7172 105.998 14.2563 106.017 14.3641Z" fill="white"/>
<path d="M82.004 7.02578C80.648 7.02578 79.4834 7.61328 78.7019 8.66172H78.3825L78.3511 8.64609V7.24844H75.5449V18.1422H78.5755V12.568C78.5755 10.7898 79.4387 9.67734 80.8567 9.67734C82.1805 9.67734 83.1536 10.6617 83.1536 12.218V18.1414H86.1842V11.568C86.1842 8.9 84.4295 7.02578 82.004 7.02578Z" fill="white"/>
<path d="M22.3249 0.78125C15.7772 0.78125 10.5156 6.05469 10.5156 12.5C10.5156 18.9984 15.829 24.2188 22.3233 24.2188C28.8177 24.2188 34.1358 18.9453 34.1358 12.5C34.1358 6.05469 28.8193 0.78125 22.3249 0.78125ZM22.3249 16.868C19.9095 16.868 17.9242 14.8969 17.9242 12.5C17.9242 10.1031 19.9095 8.13203 22.3249 8.13203C24.7403 8.13203 26.7264 10.1031 26.7264 12.5C26.6723 14.8969 24.7403 16.868 22.3249 16.868Z" fill="#8B3FFD"/>
<path d="M10.5145 4.18594V21.2312H6.33039L0.962891 4.18594H10.5145Z" fill="#8B3FFD"/>
</svg>

<svg width="113" height="25" fill="none" xmlns="http://www.w3.org/2000/svg"><path d="M99.276 12.572c0-3.067-2.33-5.547-5.623-5.547-3.226 0-5.524 2.385-5.524 5.662 0 3.294 2.363 5.696 5.753 5.696 2.15 0 3.96-.958 5.084-2.905l-2.281-1.055c-.538.974-1.712 1.607-2.803 1.607-1.385 0-2.982-1.039-3.08-2.482h8.392c.054-.323.081-.65.082-.976zm-8.426-.938c.197-1.46 1.206-2.417 2.82-2.417 1.597 0 2.575.938 2.705 2.417H90.85zM67.862 7.023c-3.309 0-5.655 2.37-5.655 5.711 0 3.31 2.346 5.647 5.688 5.647 3.357 0 5.703-2.337 5.703-5.598 0-3.359-2.411-5.76-5.736-5.76zm.033 8.875c-1.663 0-2.69-1.233-2.69-3.148 0-1.947 1.043-3.277 2.69-3.277 1.662 0 2.705 1.314 2.705 3.277 0 1.931-1.027 3.148-2.705 3.148zM56.08 7.026c-1.354 0-2.375.46-3.396 1.604h-.335c-.686-1.032-1.805-1.604-3.06-1.604a3.972 3.972 0 00-3.227 1.604h-.335l-.016-.016V7.248h-2.805v10.894h3.03v-5.606c0-1.81.767-2.874 2.09-2.874 1.229 0 2.026.905 2.026 2.286v6.194h3.046v-5.606c0-1.797.766-2.874 2.106-2.874 1.212 0 1.994.905 1.994 2.303v6.177h3.047V11.6c0-2.842-1.532-4.573-4.164-4.573zm49.937 7.338h-.217c0-.194-1.321-3.644-2.188-5.781l-.541-1.337h-3.053l4.331 10.932-1.707 4.166h3.033l6.237-15.094h-3.055l-.498 1.143-1.689 4.162c-.477 1.162-.672 1.701-.653 1.81zM82.004 7.026c-1.356 0-2.52.587-3.302 1.636h-.32l-.03-.016V7.248h-2.807v10.894h3.03v-5.574c0-1.778.864-2.89 2.282-2.89 1.323 0 2.297.984 2.297 2.54v5.923h3.03v-6.573c0-2.668-1.754-4.542-4.18-4.542z" fill="#fff"/><path d="M22.325.781c-6.548 0-11.81 5.274-11.81 11.719 0 6.498 5.314 11.719 11.808 11.719 6.495 0 11.813-5.274 11.813-11.719 0-6.445-5.317-11.719-11.811-11.719zm0 16.087c-2.415 0-4.4-1.971-4.4-4.368 0-2.397 1.985-4.368 4.4-4.368s4.401 1.971 4.401 4.368c-.054 2.397-1.986 4.368-4.401 4.368zM10.514 4.186V21.23H6.33L.963 4.186h9.551z" fill="#8B3FFD"/></svg>
